X:2715
T:The Lasses of Donaghadee
O:ireland
B:Joyce, P. W.; "Old Irish Folk Music and Songs"
R:song air
A:Down
L:1/8
M:3/4
K:D
ed|\
c2 A2 dc|B2 E2 AG|FE D2 EF|G2 B3 F|AF E2 E2|D4:|A2|
B2e2f2|e2B2c2|dBA2GA|B2e2f2|edBABc|d4 ed|
c2 A2 dc|B2E2AG|FED2EF|G2 B3 F|AFE2E2|F4||
